svg/u2754.svg

<svg viewBox="0 0 128 128" xmlns="http://www.w3.org/2000/svg">
  <g>
    <circle cx="62.5" cy="112" r="12" fill="#BDBDBD"/>
    <circle cx="60.9" cy="112" r="10.3" fill="#E0E0E0"/>
    <path d="M55.1,108.4c1.2-1.8,3.8-3.3,6.5-3.7c0.7-0.1,1.3-0.1,1.9,0.1c0.4,0.2,0.8,0.6,0.5,1 c-0.2,0.4-0.7,0.5-1.1,0.6c-2.5,0.7-4.8,2.4-6.2,4.4c-0.5,0.8-1.4,2.9-2.4,2.4C53.3,112.5,53.5,110.6,55.1,108.4z" fill="#FFFFFF"/>
    <path d="M46.1,24.3c-2.1,2-3.4,4.4-4,7.4c-0.3,1.9-2,3.2-3.9,3.2h6.9c1.9,0,3.6-1.3,3.9-3.2 c0.5-3,1.9-5.4,4-7.4c2.1-1.9,4.7-3.1,7.8-3.6c-1.1-0.2-2.3-0.3-3.5-0.3C52.7,20.5,49,21.8,46.1,24.3z" fill="#BDBDBD"/>
    <path d="M89.5,12.2C83.4,6.7,75,4,64.2,4c-1.2,0-2.3,0-3.4,0.1c9.1,0.5,16.4,3.2,21.8,8.1 c6.1,5.5,9.1,13.2,9.1,23c0,8.8-4.1,17.4-12.2,25.9l-9.8,9.6c-0.1,0.1-0.2,0.2-0.3,0.3c-2.9,3.4-4.6,8-5.2,13.9 c-0.2,2-1.9,3.6-4,3.6h6.9c2,0,3.8-1.6,4-3.6c0.5-5.9,2.3-10.5,5.2-13.9c0.1-0.1,0.2-0.2,0.3-0.3l9.8-9.6 c8.2-8.5,12.2-17.1,12.2-25.9C98.5,25.4,95.5,17.7,89.5,12.2z" fill="#BDBDBD"/>
    <path d="M64.2,85c0.5-5.9,2.3-10.5,5.2-13.9c0.1-0.1,0.2-0.2,0.3-0.3l9.8-9.6c8.2-8.5,12.2-17.1,12.2-25.9 c0-9.8-3-17.5-9.1-23C77.2,7.4,70,4.7,60.8,4.2c-8.9,0.5-16.2,3.3-21.9,8.2C33.6,17,30.4,23,29.5,30.5c-0.3,2.4,1.6,4.4,4,4.4h4.8 c1.9,0,3.6-1.3,3.9-3.2c0.5-3,1.9-5.4,4-7.4c2.8-2.6,6.6-3.9,11.2-3.9c1.2,0,2.4,0.1,3.5,0.3c1.1-0.2,2.2-0.3,3.4-0.3 c4.8,0,8.5,1.3,11,4s3.8,6.5,3.8,11.5c0,3.8-1.1,7.4-3.2,10.6c-1.4,2.2-4.7,5.8-10,10.9c-5.2,5.1-8.8,9.8-10.5,14 c-1.4,3.4-2.3,7.7-2.5,12.9c-0.1,2.3,1.7,4.2,4,4.2l0,0h3.5C62.2,88.6,64,87,64.2,85z" fill="#E0E0E0"/>
    <path d="M39.6,15.9C43,11.7,49.5,8.7,56,8.3c1.6-0.1,3.2,0,4.5,0.7c1,0.5,1.7,1.6,1,2.6 c-0.6,0.8-1.8,1.1-2.8,1.3c-6.1,1.2-12,4.7-15.9,9.3c-1.5,1.8-4,6.8-6.2,5.2C34.3,25.5,35.4,21,39.6,15.9z" fill="#FFFFFF"/>
  </g>
</svg>

<svg viewBox="0 0 128 128" xmlns="http://www.w3.org/2000/svg">
  <defs/>
  <path d="M74.5,112 A12 12 0 1 1 50.5,112 A12 12 0 1 1 74.5,112 Z" fill="#BDBDBD"/>
  <path d="M71.2,112 A10.3 10.3 0 1 1 50.6,112 A10.3 10.3 0 1 1 71.2,112 Z" fill="#E0E0E0"/>
  <path d="M55.1,108.4 C56.3,106.6 58.9,105.1 61.6,104.7 C62.3,104.6 62.9,104.6 63.5,104.8 C63.9,105 64.3,105.4 64,105.8 C63.8,106.2 63.3,106.3 62.9,106.4 C60.4,107.1 58.1,108.8 56.7,110.8 C56.2,111.6 55.3,113.7 54.3,113.2 C53.3,112.5 53.5,110.6 55.1,108.4 Z" fill="#FFFFFF"/>
  <path d="M46.1,24.3 C44,26.3 42.7,28.7 42.1,31.7 C41.8,33.6 40.1,34.9 38.2,34.9 L45.1,34.9 C47,34.9 48.7,33.6 49,31.7 C49.5,28.7 50.9,26.3 53,24.3 C55.1,22.4 57.7,21.2 60.8,20.7 C59.7,20.5 58.5,20.4 57.3,20.4 C52.7,20.5 49,21.8 46.1,24.3 Z" fill="#BDBDBD"/>
  <path d="M89.5,12.2 C83.4,6.7 75,4 64.2,4 C63,4 61.9,4 60.8,4.1 C69.9,4.6 77.2,7.3 82.6,12.2 C88.7,17.7 91.7,25.4 91.7,35.2 C91.7,44 87.6,52.6 79.5,61.1 L69.7,70.7 C69.6,70.8 69.5,70.9 69.4,71 C66.5,74.4 64.8,79 64.2,84.9 C64,86.9 62.3,88.5 60.2,88.5 L67.1,88.5 C69.1,88.5 70.9,86.9 71.1,84.9 C71.6,79 73.4,74.4 76.3,71 C76.4,70.9 76.5,70.8 76.6,70.7 L86.4,61.1 C94.6,52.6 98.6,44 98.6,35.2 C98.5,25.4 95.5,17.7 89.5,12.2 Z" fill="#BDBDBD"/>
  <path d="M64.2,85 C64.7,79.1 66.5,74.5 69.4,71.1 C69.5,71 69.6,70.9 69.7,70.8 L79.5,61.2 C87.7,52.7 91.7,44.1 91.7,35.3 C91.7,25.5 88.7,17.8 82.6,12.3 C77.2,7.4 70,4.7 60.8,4.2 C51.9,4.7 44.6,7.5 38.9,12.4 C33.6,17 30.4,23 29.5,30.5 C29.2,32.9 31.1,34.9 33.5,34.9 L38.3,34.9 C40.2,34.9 41.9,33.6 42.2,31.7 C42.7,28.7 44.1,26.3 46.2,24.3 C49,21.7 52.8,20.4 57.4,20.4 C58.6,20.4 59.8,20.5 60.9,20.7 C62,20.5 63.1,20.4 64.3,20.4 C69.1,20.4 72.8,21.7 75.3,24.4 C77.8,27.1 79.1,30.9 79.1,35.9 C79.1,39.7 78,43.3 75.9,46.5 C74.5,48.7 71.2,52.3 65.9,57.4 C60.7,62.5 57.1,67.2 55.4,71.4 C54,74.8 53.1,79.1 52.9,84.3 C52.8,86.6 54.6,88.5 56.9,88.5 L56.9,88.5 L60.4,88.5 C62.2,88.6 64,87 64.2,85 Z" fill="#E0E0E0"/>
  <path d="M39.6,15.9 C43,11.7 49.5,8.7 56,8.3 C57.6,8.2 59.2,8.3 60.5,9 C61.5,9.5 62.2,10.6 61.5,11.6 C60.9,12.4 59.7,12.7 58.7,12.9 C52.6,14.1 46.7,17.6 42.8,22.2 C41.3,24 38.8,29 36.6,27.4 C34.3,25.5 35.4,21 39.6,15.9 Z" fill="#FFFFFF"/>
</svg>
